X: 10662
T: Down The Broom
R: reel
M: 4/4
K: Adorian
A2BG A2Bd|egfa gedB|G2BE GEBE|G2BA GEDG|
A2BG A2Bd|egfg efga|gfge d2ef|1 gfgd BAAG:|2 gfgd BAA2||
a2ea a2ea|a2ba gede|g2ba gbag|gbaf gedg|
a2ea a2ea|a2ba gede|gfge d2ef|1 gfgd BAA2:|2 gfgd BAAG||

